X:3085
T:Clear The Way
% Nottingham Music Database
S:via PR
M:4/4
L:1/4
K:A
z/2|:"A"z/2A/2-A/2G/2 AA|"Bm"B/2c/2B/2A/2 "E"GE|"A"z/2A/2-A/2G/2 AA|"Bm"
P:>
+c2 e2 +"E"\
P:>
+B2e2+|"A"z/2A/2-A/2G/2 AA|"Bm"B/2c/2B/2A/2 "E"GE|\
"A"e/2f/2e/2d/2 "Bm"c/2B/2A/2G/2|"E"F/2E/2F/2G/2 "A"A::
"A"z/2+c/2a/2+-+c/2a/2+=c/2 +c2a2+|"D"z/2+=c/2a/2+-+=c/2a/2+B/2 +c2a2+|\
"A"z/2+c/2a/2+-+c/2a/2+=c/2 +ca++ca+|"Bm"+c2 e2 +"E"+B2e2+|
"A"z/2+c/2a/2+-+c/2a/2+=c/2 +c2a2+|"D"z/2+=c/2a/2+-+=c/2a/2+B/2 +c2a2+|\
 [1"A"e/2f/2e/2d/2 "Bm"c/2B/2A/2G/2|"E"F/2E/2F/2G/2 "A"A:|
"A"\
P:4 (last time)
e/2f/2e/2d/2 "Bm"c/2B/2A/2G/2|"E"F/2G/2-G "A"Az||


